logo.svg

<svg fill="none" height="28" viewBox="0 0 111 28" width="111" xmlns="http://www.w3.org/2000/svg"><path d="m13.75 27.9735h.85c-.0016-3.6865 1.4335-7.2285 4.0007-9.8741s6.0645-4.1867 9.7493-4.2959c-.0981-3.6943-1.6346-7.20429-4.2823-9.78252-2.6476-2.57823-6.1971-4.02098-9.8927-4.02098s-7.24512 1.44275-9.89274 4.02098c-2.64763 2.57823-4.1841293 6.08822-4.28226 9.78252 3.68485.1092 7.18204 1.6503 9.74927 4.2959s4.00233 6.1876 4.00073 9.8741z" fill="#00a040"/><g fill="#898989"><path d="m51.07 2.45349h-1.95v1.84h-9.37v1.68001h9.42v1.72h-8.24v8h6.51c-2.1934 2.0578-4.8216 3.5957-7.69 4.5v1.89c3.5544-1.2597 6.7757-3.3114 9.42-6v6.15h1.95v-6.17c2.6425 2.6908 5.8643 4.7429 9.42 6v-1.89c-2.8691-.9027-5.4976-2.4409-7.69-4.5h6.51v-8.00001h-8.24v-1.72h9.42v-1.67999h-9.42zm-8.39 6.81h6.44v1.80001h-6.44zm0 3.16001h6.44v1.75h-6.44zm14.83 1.75h-6.44v-1.75h6.44zm0-4.91001v1.80001h-6.44v-1.80001z"/><path d="m68.53 16.0635c-1.3736 1.5184-2.9723 2.8168-4.74 3.85v2.05c2.711-1.5362 5.1339-3.5326 7.16-5.9z"/><path d="m79.61 16.0635h-2.28c2.02 2.4066 4.4807 4.4056 7.25 5.89v-2.05c-1.8115-1.066-3.4814-2.3562-4.97-3.84z"/><path d="m80.9299 14.2735h1.9v-6.46002h-17.28v6.46002h7.6201v5.38c0 .71-.39.91-1 .91h-2.3701v1.68h2.85c1.77 0 2.51-.83 2.51-2.06v-5.91zm-13.49-4.90003h13.49v3.33003h-13.49z"/><path d="m75.1999 2.45349h-2.03v1.84h-9.38v1.68001h20.79v-1.68001h-9.38z"/><path d="m107.58 10.1635 2.39-7.45h-8.55v19.14h1.64v-17.54999h4.74l-2 5.99999s2.58 2.89 2.58 5.56c.025.3323-.019.666-.129.9806-.11.3145-.283.6032-.509.8479-.226.2448-.5.4405-.805.5749-.305.1345-.634.2048-.967.2066h-1.45v1.59h1.4s4.21 0 4.21-4.29c.04-2.87-2.55-5.61-2.55-5.61z"/><path d="m98.55 2.71346c-.1881.53797-.4051 1.06541-.65 1.58h-3.81v-2h-1.76v2h-4v1.49h4v3.11h-4.58v1.49004h5.42c-1.4611 1.2258-3.0745 2.2576-4.8 3.07v1.8c.35-.17.73-.35 1.11-.55v7.15h10.27v-9.46h-6.61c.8107-.6221 1.5853-1.2898 2.32-2h4.29v-1.49004h-3c1.5514-1.80711 2.7216-3.90921 3.44-6.18zm-.47 17.81004h-6.86v-2.74h6.86zm0-4.07h-6.86v-2.74h6.86zm-4-7.56004v-3.11h3c-.6755 1.12179-1.4737 2.16488-2.38 3.11z"/></g></svg>

<svg width="111" height="28" viewBox="0 0 111 28" fill="none" xmlns="http://www.w3.org/2000/svg">
<path d="M13.75 27.9735H14.6C14.5984 24.287 16.0335 20.745 18.6007 18.0994C21.1679 15.4538 24.6652 13.9127 28.35 13.8035C28.2519 10.1092 26.7154 6.59921 24.0677 4.02098C21.4201 1.44275 17.8706 0 14.175 0C10.4794 0 6.92988 1.44275 4.28226 4.02098C1.63463 6.59921 0.0981307 10.1092 0 13.8035V13.8035C3.68485 13.9127 7.18204 15.4538 9.74927 18.0994C12.3165 20.745 13.7516 24.287 13.75 27.9735V27.9735Z" fill="#00A040"/>
<path d="M51.07 2.45349H49.12V4.29349H39.75V5.9735H49.17V7.6935H40.93V15.6935H47.44C45.2466 17.7513 42.6184 19.2892 39.75 20.1935V22.0835C43.3044 20.8238 46.5257 18.7721 49.17 16.0835V22.2335H51.12V16.0635C53.7625 18.7543 56.9843 20.8064 60.54 22.0635V20.1735C57.6709 19.2708 55.0424 17.7326 52.85 15.6735H59.36V7.67349H51.12V5.95349H60.54V4.2735H51.12L51.07 2.45349ZM42.68 9.26349H49.12V11.0635H42.68V9.26349ZM42.68 12.4235H49.12V14.1735H42.68V12.4235ZM57.51 14.1735H51.07V12.4235H57.51V14.1735ZM57.51 9.26349V11.0635H51.07V9.26349H57.51Z" fill="#898989"/>
<path d="M68.53 16.0635C67.1564 17.5819 65.5577 18.8803 63.79 19.9135V21.9635C66.501 20.4273 68.9239 18.4309 70.95 16.0635H68.53Z" fill="#898989"/>
<path d="M79.61 16.0635H77.33C79.35 18.4701 81.8107 20.4691 84.58 21.9535V19.9035C82.7685 18.8375 81.0986 17.5473 79.61 16.0635Z" fill="#898989"/>
<path d="M80.9299 14.2735H82.8299V7.81348H65.5499V14.2735H73.17V19.6535C73.17 20.3635 72.78 20.5635 72.17 20.5635H69.7999V22.2435H72.6499C74.4199 22.2435 75.1599 21.4135 75.1599 20.1835V14.2735H80.9299ZM67.4399 9.37347H80.9299V12.7035H67.4399V9.37347Z" fill="#898989"/>
<path d="M75.1999 2.45349H73.1699V4.29349H63.7899V5.9735H84.5799V4.29349H75.1999V2.45349Z" fill="#898989"/>
<path d="M107.58 10.1635L109.97 2.7135H101.42V21.8535H103.06V4.30351H107.8L105.8 10.3035C105.8 10.3035 108.38 13.1935 108.38 15.8635C108.405 16.1958 108.361 16.5295 108.251 16.8441C108.141 17.1586 107.968 17.4473 107.742 17.692C107.516 17.9368 107.242 18.1325 106.937 18.2669C106.632 18.4014 106.303 18.4717 105.97 18.4735H104.52V20.0635H105.92C105.92 20.0635 110.13 20.0635 110.13 15.7735C110.17 12.9035 107.58 10.1635 107.58 10.1635Z" fill="#898989"/>
<path d="M98.55 2.71346C98.3619 3.25143 98.1449 3.77887 97.9 4.29346H94.09V2.29346H92.33V4.29346H88.33V5.78346H92.33V8.89346H87.75V10.3835H93.17C91.7089 11.6093 90.0955 12.6411 88.37 13.4535V15.2535C88.72 15.0835 89.1 14.9035 89.48 14.7035V21.8535H99.75V12.3935H93.14C93.9507 11.7714 94.7253 11.1037 95.46 10.3935H99.75V8.90346H96.75C98.3014 7.09635 99.4716 4.99425 100.19 2.72346L98.55 2.71346ZM98.08 20.5235H91.22V17.7835H98.08V20.5235ZM98.08 16.4535H91.22V13.7135H98.08V16.4535ZM94.08 8.89346V5.78346H97.08C96.4045 6.90525 95.6063 7.94834 94.7 8.89346H94.08Z" fill="#898989"/>
</svg>
